public/icons/framework-icons/framework-icons/logo-vitepress.svg

<svg width="48" height="48" viewBox="0 0 48 48" fill="none" xmlns="http://www.w3.org/2000/svg">
  <path d="M5.03628 7.87818C4.75336 5.83955 6.15592 3.95466 8.16899 3.66815L33.6838 0.0367403C35.6969 -0.24977 37.5581 1.1706 37.841 3.20923L42.9637 40.1218C43.2466 42.1604 41.8441 44.0453 39.831 44.3319L14.3162 47.9633C12.3031 48.2498 10.4419 46.8294 10.159 44.7908L5.03628 7.87818Z" fill="url(#paint0_linear_1287_1214)"/>
  <path d="M6.85877 7.6188C6.71731 6.59948 7.41859 5.65703 8.42512 5.51378L33.9399 1.88237C34.9465 1.73911 35.8771 2.4493 36.0186 3.46861L41.1412 40.3812C41.2827 41.4005 40.5814 42.343 39.5749 42.4862L14.0601 46.1176C13.0535 46.2609 12.1229 45.5507 11.9814 44.5314L6.85877 7.6188Z" fill="white"/>
  <path d="M33.1857 14.9195L25.8505 34.1576C25.6991 34.5547 25.1763 34.63 24.9177 34.2919L12.3343 17.8339C12.0526 17.4655 12.3217 16.9339 12.7806 16.9524L22.9053 17.3607C22.9698 17.3633 23.0344 17.3541 23.0956 17.3337L32.5088 14.1992C32.9431 14.0546 33.3503 14.4878 33.1857 14.9195Z" fill="url(#paint1_linear_1287_1214)"/>
  <path d="M27.0251 12.5756L19.9352 15.0427C19.8187 15.0832 19.7444 15.1986 19.7546 15.3231L20.3916 23.063C20.4066 23.2453 20.5904 23.3628 20.7588 23.2977L22.7226 22.5392C22.9064 22.4682 23.1021 22.6138 23.0905 22.8128L22.9102 25.8903C22.8982 26.0974 23.1093 26.2436 23.295 26.1567L24.4948 25.5953C24.6808 25.5084 24.892 25.6549 24.8795 25.8624L24.5855 30.6979C24.5671 31.0004 24.9759 31.1067 25.1013 30.8321L25.185 30.6487L29.4298 17.8014C29.5008 17.5863 29.2968 17.3809 29.0847 17.454L27.0519 18.1547C26.8609 18.2205 26.6675 18.0586 26.6954 17.8561L27.3823 12.8739C27.4103 12.6712 27.2163 12.5091 27.0251 12.5756Z" fill="url(#paint2_linear_1287_1214)"/>
  <defs>
    <linearGradient id="paint0_linear_1287_1214" x1="6.48163" y1="1.9759" x2="39.05" y2="48.2064" gradientUnits="userSpaceOnUse">
      <stop stop-color="#49C7FF"/>
      <stop offset="1" stop-color="#BD36FF"/>
    </linearGradient>
    <linearGradient id="paint1_linear_1287_1214" x1="11.8848" y1="16.4266" x2="26.7246" y2="31.4177" gradientUnits="userSpaceOnUse">
      <stop stop-color="#41D1FF"/>
      <stop offset="1" stop-color="#BD34FE"/>
    </linearGradient>
    <linearGradient id="paint2_linear_1287_1214" x1="21.8138" y1="13.7046" x2="26.2464" y2="28.8069" gradientUnits="userSpaceOnUse">
      <stop stop-color="#FFEA83"/>
      <stop offset="0.0833333" stop-color="#FFDD35"/>
      <stop offset="1" stop-color="#FFA800"/>
    </linearGradient>
  </defs>
</svg>

<svg xmlns="http://www.w3.org/2000/svg" width="48" height="48" fill="none"><path fill="url(#a)" d="M5.036 7.878c-.283-2.038 1.12-3.923 3.133-4.21L33.684.037c2.013-.287 3.874 1.134 4.157 3.172l5.123 36.913c.283 2.038-1.12 3.923-3.133 4.21l-25.515 3.631c-2.013.287-3.874-1.134-4.157-3.172z"/><path fill="#fff" d="M6.859 7.619a1.86 1.86 0 0 1 1.566-2.105L33.94 1.882a1.844 1.844 0 0 1 2.079 1.587L41.14 40.38a1.86 1.86 0 0 1-1.566 2.105L14.06 46.118a1.844 1.844 0 0 1-2.079-1.587z"/><path fill="url(#b)" d="M33.186 14.92 25.85 34.158a.538.538 0 0 1-.933.134L12.334 17.834c-.281-.369-.012-.9.447-.882l10.124.409a.5.5 0 0 0 .19-.027l9.414-3.135c.434-.144.841.289.677.72"/><path fill="url(#c)" d="m27.025 12.576-7.09 2.467a.27.27 0 0 0-.18.28l.637 7.74c.015.182.198.3.367.235l1.964-.759a.273.273 0 0 1 .367.274l-.18 3.077c-.012.207.2.354.385.267l1.2-.562a.272.272 0 0 1 .384.267l-.294 4.836c-.018.302.39.409.516.134l.084-.183L29.43 17.8c.07-.215-.133-.42-.345-.347l-2.033.7a.273.273 0 0 1-.357-.298l.687-4.982a.273.273 0 0 0-.357-.298"/><defs><linearGradient id="a" x1="6.482" x2="39.05" y1="1.976" y2="48.206" gradientUnits="userSpaceOnUse"><stop stop-color="#49C7FF"/><stop offset="1" stop-color="#BD36FF"/></linearGradient><linearGradient id="b" x1="11.885" x2="26.725" y1="16.427" y2="31.418" gradientUnits="userSpaceOnUse"><stop stop-color="#41D1FF"/><stop offset="1" stop-color="#BD34FE"/></linearGradient><linearGradient id="c" x1="21.814" x2="26.246" y1="13.705" y2="28.807" gradientUnits="userSpaceOnUse"><stop stop-color="#FFEA83"/><stop offset=".083" stop-color="#FFDD35"/><stop offset="1" stop-color="#FFA800"/></linearGradient></defs></svg>
